X:1
T:Title
%%score { ( 1 4 ) | ( 2 3 ) }
L:1/8
M:4/4
K:Ab
V:1 treble nm="Grand Piano"
V:4 treble 
V:2 bass 
V:3 bass 
V:1
 z4 z2[Q:1/4=94] [CE]2 | [Ec]3 [DB] [CA][DB][Ec][Fd] | c2 B4 E2 | B3 F GA c>B |[M:3/4] E6 | %5
[M:1/4] [CE]2 |[M:4/4] [Ec]3 [DB] [CA][DB][Ec][_Ge] | [Fe]2 [Fd]4 FB | A3 c cB F>G |[M:3/4] [CA]6 | %10
[M:1/4] e2 |[M:4/4] e3 c [Af]2 [FAd]2 | [Gd]3 [GB] [Ge]2 [DE]2 | [CE]3 [DF] [EG][EA]B_c | %14
[M:3/4] c6 |[M:1/4] e2 |[M:4/4] e3 =d e2 A2 | [Gd]3 [Gc] [Gd]2 [A=d]2 | [Ge]3 A c2 [Fd]2 | %19
[M:7/8] [EB]3 [DE] [CA]3 |] %20
V:2
 z4 z2 [A,,A,]2 | [A,,A,]3 [A,,E,] [A,,E,][A,,E,][A,,A,][A,,A,] | [E,A,E]2 [E,G,E]4 [E,G,]2 | %3
 [E,G,D]3 [E,A,D] [E,B,D][E,A,C] [E,A,E]>[E,G,D] |[M:3/4] [A,C]6 |[M:1/4] [A,,A,]2 | %6
[M:4/4] [A,,A,]3 [A,,E,] [A,,E,][A,,E,][A,,A,][C,A,] | z4 z2 .[A,D]2 | %8
 [E,CE]3 [E,A,E] [E,A,E][E,G,D] [E,G,D]>[E,B,D] |[M:3/4] [A,,A,]6 |[M:1/4][K:treble] [A,CA]2 | %11
[M:4/4] [A,CA]3 [A,EA][K:bass] [D,D]2 D,2 | [E,E]3 [E,E] [E,B,]2 [E,G,]2 | %13
 [A,,A,]3 [A,,A,] [A,,A,][C,A,][E,G,E][E,G,E] |[M:3/4] E4 z2 |[M:1/4] [A,CE]2 | %16
[M:4/4] [A,CE]3 [A,_CE] [A,=CE]2 [A,CE]2 | [E,E]3 [E,E] [E,B,]2 [F,B,]2 | %18
 [E,B,]3 [A,CE] [A,E]2 [D,A,]2 |[M:7/8] [E,G,]3 [E,G,] [A,,E,A,]3 |] %20
V:3
 x8 | x8 | x8 | x8 |[M:3/4] x6 |[M:1/4] x2 |[M:4/4] x8 | [D,A,]2 [D,A,]4 D,-[D,DF] | x8 | %9
[M:3/4] x6 |[M:1/4][K:treble] x2 |[M:4/4] x4[K:bass] x4 | x8 | x8 |[M:3/4] A,6 |[M:1/4] x2 | %16
[M:4/4] x8 | x8 | x8 |[M:7/8] x7 |] %20
V:4
 x8 | x8 | x8 | x8 |[M:3/4] x6 |[M:1/4] x2 |[M:4/4] x8 | x8 | x8 |[M:3/4] x6 |[M:1/4] x2 | %11
[M:4/4] x8 | x8 | x8 |[M:3/4] z A GF E2 |[M:1/4] x2 |[M:4/4] x8 | x8 | x8 |[M:7/8] x7 |] %20

